svg/arrow_bottom_left_bold_box.svg

<svg xmlns="http://www.w3.org/2000/svg" viewBox="0 0 24 24"><path d="M5 21c-1.1 0-2-.9-2-2V5c0-1.1.9-2 2-2h14c1.1 0 2 .9 2 2v14c0 1.1-.9 2-2 2zm10.3-5-2.1-2.1L17 10l-2.8-2.8-3.8 3.9-2.2-2.2V16z"/></svg>

<svg xmlns="http://www.w3.org/2000/svg" id="mdi-arrow-bottom-left-bold-box" viewBox="0 0 24 24"><path d="M5 21C3.9 21 3 20.1 3 19V5C3 3.9 3.9 3 5 3H19C20.1 3 21 3.9 21 5V19C21 20.1 20.1 21 19 21H5M15.3 16L13.2 13.9L17 10L14.2 7.2L10.4 11.1L8.2 8.9V16H15.3Z" /></svg>
